public/assets/shields.svg

<svg width="179" height="177" viewBox="0 0 179 177" fill="none" xmlns="http://www.w3.org/2000/svg">
<g filter="url(#filter0_i_76:214)">
<path d="M178.085 31.3473C177.996 29.9344 177.433 28.5921 176.486 27.5354C175.54 26.4787 174.264 25.7688 172.864 25.5194C138.708 19.4269 124.336 14.6619 93.4921 0.849001C90.4112 -0.292856 88.5016 -0.273101 85.5517 0.849001C54.7074 14.6777 40.3354 19.419 6.17999 25.5194C4.77975 25.7688 3.50414 26.4787 2.55753 27.5354C1.61092 28.5921 1.04809 29.9344 0.959204 31.3473C-0.569313 55.4883 2.68226 77.9698 10.6306 98.1795C17.1298 114.659 26.7582 129.739 38.9895 142.593C56.7243 161.333 76.3886 172.274 86.5284 176.415C88.4511 177.195 90.6046 177.195 92.5273 176.415C103.247 172.1 122.181 161.472 140.054 142.586C152.285 129.733 161.913 114.656 168.413 98.1795C176.362 77.9738 179.613 55.4883 178.085 31.3473V31.3473Z" fill="url(#paint0_angular_76:214)"/>
</g>
<defs>
<filter id="filter0_i_76:214" x="0.592285" y="0" width="177.859" height="181" filterUnits="userSpaceOnUse" color-interpolation-filters="sRGB">
<feFlood flood-opacity="0" result="BackgroundImageFix"/>
<feBlend mode="normal" in="SourceGraphic" in2="BackgroundImageFix" result="shape"/>
<feColorMatrix in="SourceAlpha" type="matrix" values="0 0 0 0 0 0 0 0 0 0 0 0 0 0 0 0 0 0 127 0" result="hardAlpha"/>
<feOffset dy="4"/>
<feGaussianBlur stdDeviation="2"/>
<feComposite in2="hardAlpha" operator="arithmetic" k2="-1" k3="1"/>
<feColorMatrix type="matrix" values="0 0 0 0 0 0 0 0 0 0 0 0 0 0 0 0 0 0 0.25 0"/>
<feBlend mode="normal" in2="shape" result="effect1_innerShadow_76:214"/>
</filter>
<radialGradient id="paint0_angular_76:214" cx="0" cy="0" r="1" gradientUnits="userSpaceOnUse" gradientTransform="translate(89.5219 88.5) rotate(-4.34957) scale(565.654 765.234)">
<stop stop-color="#05AA5B"/>
<stop offset="1" stop-color="#00D870" stop-opacity="0.51"/>
</radialGradient>
</defs>
</svg>

<svg width="179" height="177" fill="none" xmlns="http://www.w3.org/2000/svg"><g filter="url(#a)"><path d="M178.085 31.347a6.305 6.305 0 0 0-1.599-3.812 6.358 6.358 0 0 0-3.622-2.016C138.708 19.427 124.336 14.662 93.492.85c-3.08-1.142-4.99-1.122-7.94 0-30.845 13.829-45.217 18.57-79.372 24.67a6.36 6.36 0 0 0-3.622 2.016 6.306 6.306 0 0 0-1.599 3.812C-.569 55.488 2.682 77.97 10.631 98.18a137.743 137.743 0 0 0 28.358 44.414c17.735 18.74 37.4 29.681 47.54 33.822 1.922.78 4.076.78 5.998 0 10.72-4.315 29.654-14.943 47.527-33.829a137.752 137.752 0 0 0 28.359-44.407c7.949-20.205 11.2-42.69 9.672-66.832Z" fill="url(#b)"/></g><defs><radialGradient id="b" cx="0" cy="0" r="1" gradientUnits="userSpaceOnUse" gradientTransform="matrix(564.02486 -42.9 58.03644 763.03004 89.522 88.5)"><stop stop-color="#05AA5B"/><stop offset="1" stop-color="#00D870" stop-opacity=".51"/></radialGradient><filter id="a" x=".592" y="0" width="177.859" height="181" filterUnits="userSpaceOnUse" color-interpolation-filters="sRGB"><feFlood flood-opacity="0" result="BackgroundImageFix"/><feBlend in="SourceGraphic" in2="BackgroundImageFix" result="shape"/><feColorMatrix in="SourceAlpha" values="0 0 0 0 0 0 0 0 0 0 0 0 0 0 0 0 0 0 127 0" result="hardAlpha"/><feOffset dy="4"/><feGaussianBlur stdDeviation="2"/><feComposite in2="hardAlpha" operator="arithmetic" k2="-1" k3="1"/><feColorMatrix values="0 0 0 0 0 0 0 0 0 0 0 0 0 0 0 0 0 0 0.25 0"/><feBlend in2="shape" result="effect1_innerShadow_76:214"/></filter></defs></svg>
